Yaru++/emotes/16/face-embarrassed.svg

<svg height="16" width="16" xmlns="http://www.w3.org/2000/svg"><g stroke-width="1.142857"><path d="m8 0a8 8 0 1 0 0 16 8 8 0 0 0 0-16zm-2.8217143 5.9165714c.84 0 1.6788572.5097143 1.6788572 1.4994286-1.7142858-.3862857-3.5714286 1.9805714-3.4285715 0 .072-.9897143.9108572-1.4994286 1.7497143-1.4994286zm5.6434283 0c.838857 0 1.678857.5097143 1.749715 1.4994286.142857 1.9805714-1.714286-.3862857-3.428572 0 0-.9897143.838857-1.4994286 1.678857-1.4994286zm-6.8571426 2.9234286a.85714286.85714286 0 1 1 0 1.714286.85714286.85714286 0 1 1 0-1.714286zm8.0194286 0a.85714286.85714286 0 1 1 0 1.714286.85714286.85714286 0 1 1 0-1.714286zm-4.6742857 2.585143h1.3394286c.2354285 0 .6251431.254857.6251431.571428 0 .316572-.3885717.589715-.6251431.589715h-1.3394286c-.2354286 0-.5531429-.273143-.5531429-.589715 0-.316571.3177143-.571428.5531429-.571428z" fill="#fdc92b"/><path d="m8 0c-4.5526383.00330686-8.18477005 3.7998896-7.9866071 8.3482143.1207375-4.3256733 3.6592528-7.77122596 7.9866071-7.77678573 4.280605.00310857 7.800287 3.37523683 7.986607 7.65178573.125609-4.499927-3.484932-8.21743064-7.986607-8.2232143zm-1.4665178 7.375c-1.4527024-.0588906-2.8953173 1.4883518-3.0781251.4598215-.00835.051046-.022865.097887-.026786.1517856-.1428571 1.9805715 1.7142857-.3862857 3.4285715 0 0-.2211154-.048369-.4141864-.1227679-.5870535-.0667027-.010072-.1340378-.0218434-.2008925-.0245536zm2.9330358 0c-.06686.00271-.13419.014482-.200893.024554-.0744.1728671-.122768.3659381-.122768.5870535 1.714286-.3862857 3.571429 1.9805715 3.428572 0-.004-.055497-.01811-.103776-.02679-.15625-.179976 1.0359863-1.623688-.5143183-3.078121-.4553575zm-2.6116073 4.910714c-.055596.08455-.098214.175936-.098214.281251 0 .316571.3181429.591517.5535715.591517h1.3392857c.2365714 0 .6250001-.274946.6250001-.591517 0-.105338-.05204-.196692-.118303-.281251-.132695.174524-.3490986.30134-.5066971.30134h-1.3392854c-.1569525 0-.3437805-.126609-.4553578-.30134z" fill="#fff" opacity=".3"/><path d="m5.1785714 5.3459822c-.8388571 0-1.678.5080536-1.75 1.4977677-.013536.1876669.00623.3040005.026785.419643.1449039-.8862994.9300401-1.3459822 1.7232143-1.3459822.6523326 0 1.297192.3098272 1.5558035.9107143.040789.00616.082113.00646.1227685.015625 0-.9897141-.8385715-1.4977677-1.6785713-1.4977678zm5.6428576 0c-.84 0-1.678572.5080536-1.678572 1.4977677.04066-.00917.08198-.00946.122768-.015625.258612-.6008871.903471-.9107143 1.555804-.9107143.791819 0 1.577195.4582018 1.723213 1.3415178.02-.1151093.04018-.2294997.02679-.4151784-.07086-.9897141-.911143-1.4977677-1.75-1.4977677zm5.165178 2.3058035c-.120737 4.3256723-3.659253 7.7712253-7.986607 7.7767853-4.2806047-.003109-7.8002872-3.375236-7.9866071-7.6517853-.1256086 4.4999273 3.484931 8.2174303 7.9866071 8.2232143 4.552638-.0033 8.18477-3.799889 7.986607-8.3482143zm-8.6763391 3.2008933c-.2354286 0-.5535714.254857-.5535714.571428 0 .10552.042426.202814.098214.290179.1115245-.169592.2982489-.290179.4553571-.290179h1.3392854c.1570875 0 .373832.120624.506696.290179.06649-.08745.118304-.1845.118304-.290179 0-.316571-.3895714-.571428-.625-.571428z" opacity=".2"/><g fill="#f22c42"><ellipse cx="3.983411" cy="10.220099" rx="1.355932" ry="1.433414"/><ellipse cx="12.18365" cy="10.220099" rx="1.355932" ry="1.433414"/></g></g></svg>

<?xml version="1.0" encoding="UTF-8" standalone="no"?>
<svg
   xmlns:dc="http://purl.org/dc/elements/1.1/"
   xmlns:cc="http://creativecommons.org/ns#"
   xmlns:rdf="http://www.w3.org/1999/02/22-rdf-syntax-ns#"
   xmlns:svg="http://www.w3.org/2000/svg"
   xmlns="http://www.w3.org/2000/svg"
   xmlns:sodipodi="http://sodipodi.sourceforge.net/DTD/sodipodi-0.dtd"
   xmlns:inkscape="http://www.inkscape.org/namespaces/inkscape"
   width="16"
   height="16"
   version="1.1"
   id="svg4"
   sodipodi:docname="face-embarrassed.svg"
   inkscape:version="0.92.4 (5da689c313, 2019-01-14)">
  <metadata
     id="metadata10">
    <rdf:RDF>
      <cc:Work
         rdf:about="">
        <dc:format>image/svg+xml</dc:format>
        <dc:type
           rdf:resource="http://purl.org/dc/dcmitype/StillImage" />
      </cc:Work>
    </rdf:RDF>
  </metadata>
  <defs
     id="defs8" />
  <sodipodi:namedview
     pagecolor="#ffffff"
     bordercolor="#666666"
     borderopacity="1"
     objecttolerance="10"
     gridtolerance="10"
     guidetolerance="10"
     inkscape:pageopacity="0"
     inkscape:pageshadow="2"
     inkscape:window-width="1920"
     inkscape:window-height="1016"
     id="namedview6"
     showgrid="false"
     showguides="true"
     inkscape:guide-bbox="true"
     inkscape:zoom="59.928571"
     inkscape:cx="1.659118"
     inkscape:cy="8"
     inkscape:window-x="0"
     inkscape:window-y="27"
     inkscape:window-maximized="1"
     inkscape:current-layer="svg4">
    <sodipodi:guide
       position="-29.423729,6.0338983"
       orientation="1,0"
       id="guide845"
       inkscape:locked="false" />
  </sodipodi:namedview>
  <path
     d="M 8,0 A 8,8 0 1 0 8,16 8,8 0 0 0 8,0 Z M 5.1782857,5.9165714 c 0.84,0 1.6788572,0.5097143 1.6788572,1.4994286 -1.7142858,-0.3862857 -3.5714286,1.9805714 -3.4285715,0 0.072,-0.9897143 0.9108572,-1.4994286 1.7497143,-1.4994286 z m 5.6434283,0 c 0.838857,0 1.678857,0.5097143 1.749715,1.4994286 0.142857,1.9805714 -1.714286,-0.3862857 -3.428572,0 0,-0.9897143 0.838857,-1.4994286 1.678857,-1.4994286 z M 3.9645714,8.84 a 0.85714286,0.85714286 0 1 1 0,1.714286 0.85714286,0.85714286 0 1 1 0,-1.714286 z m 8.0194286,0 a 0.85714286,0.85714286 0 1 1 0,1.714286 0.85714286,0.85714286 0 1 1 0,-1.714286 z m -4.6742857,2.585143 h 1.3394286 c 0.2354285,0 0.6251431,0.254857 0.6251431,0.571428 0,0.316572 -0.3885717,0.589715 -0.6251431,0.589715 H 7.3097143 c -0.2354286,0 -0.5531429,-0.273143 -0.5531429,-0.589715 0,-0.316571 0.3177143,-0.571428 0.5531429,-0.571428 z"
     id="path2"
     style="fill:#fdc92b;fill-opacity:1;stroke-width:1.14285719"
     inkscape:connector-curvature="0" />
  <path
     style="opacity:0.3;fill:#ffffff;fill-opacity:1;stroke-width:1.14285719"
     d="M 8,0 C 3.4473617,0.00330686 -0.18477005,3.7998896 0.0133929,8.3482143 0.1341304,4.022541 3.6726457,0.57698834 8,0.57142857 12.280605,0.57453714 15.800287,3.9466654 15.986607,8.2232143 16.112216,3.7232873 12.501675,0.00578366 8,0 Z M 6.5334822,7.375 C 5.0807798,7.3161094 3.6381649,8.8633518 3.4553571,7.8348215 c -0.00835,0.051046 -0.022865,0.097887 -0.026786,0.1517856 -0.1428571,1.9805715 1.7142857,-0.3862857 3.4285715,0 0,-0.2211154 -0.048369,-0.4141864 -0.1227679,-0.5870535 C 6.667672,7.3894816 6.6003369,7.3777102 6.5334822,7.375 Z m 2.9330358,0 c -0.06686,0.00271 -0.13419,0.014482 -0.200893,0.024554 -0.0744,0.1728671 -0.122768,0.3659381 -0.122768,0.5870535 1.714286,-0.3862857 3.571429,1.9805715 3.428572,0 -0.004,-0.055497 -0.01811,-0.103776 -0.02679,-0.15625 C 12.364663,8.8663438 10.920951,7.3160392 9.466518,7.375 Z m -2.6116073,4.910714 c -0.055596,0.08455 -0.098214,0.175936 -0.098214,0.281251 0,0.316571 0.3181429,0.591517 0.5535715,0.591517 h 1.3392857 c 0.2365714,0 0.6250001,-0.274946 0.6250001,-0.591517 0,-0.105338 -0.05204,-0.196692 -0.118303,-0.281251 -0.132695,0.174524 -0.3490986,0.30134 -0.5066971,0.30134 H 7.3102685 c -0.1569525,0 -0.3437805,-0.126609 -0.4553578,-0.30134 z"
     id="path849"
     inkscape:connector-curvature="0"
     sodipodi:nodetypes="cccccsccccssccccscsssscssc" />
  <path
     style="opacity:0.2;fill:#000000;fill-opacity:1;stroke-width:1.14285719"
     d="m 5.1785714,5.3459822 c -0.8388571,0 -1.678,0.5080536 -1.75,1.4977677 -0.013536,0.1876669 0.00623,0.3040005 0.026785,0.419643 0.1449039,-0.8862994 0.9300401,-1.3459822 1.7232143,-1.3459822 0.6523326,0 1.297192,0.3098272 1.5558035,0.9107143 0.040789,0.00616 0.082113,0.00646 0.1227685,0.015625 0,-0.9897141 -0.8385715,-1.4977677 -1.6785713,-1.4977678 z m 5.6428576,0 c -0.84,0 -1.678572,0.5080536 -1.678572,1.4977677 0.04066,-0.00917 0.08198,-0.00946 0.122768,-0.015625 0.258612,-0.6008871 0.903471,-0.9107143 1.555804,-0.9107143 0.791819,0 1.577195,0.4582018 1.723213,1.3415178 0.02,-0.1151093 0.04018,-0.2294997 0.02679,-0.4151784 -0.07086,-0.9897141 -0.911143,-1.4977677 -1.75,-1.4977677 z m 5.165178,2.3058035 C 15.86587,11.977458 12.327354,15.423011 8,15.428571 3.7193953,15.425462 0.1997128,12.053335 0.0133929,7.7767857 -0.1122157,12.276713 3.4983239,15.994216 8,16 12.552638,15.9967 16.18477,12.200111 15.986607,7.6517857 Z M 7.3102679,10.852679 c -0.2354286,0 -0.5535714,0.254857 -0.5535714,0.571428 0,0.10552 0.042426,0.202814 0.098214,0.290179 0.1115245,-0.169592 0.2982489,-0.290179 0.4553571,-0.290179 H 8.649553 c 0.1570875,0 0.373832,0.120624 0.506696,0.290179 0.06649,-0.08745 0.118304,-0.1845 0.118304,-0.290179 0,-0.316571 -0.3895714,-0.571428 -0.625,-0.571428 z"
     id="path854"
     inkscape:connector-curvature="0"
     sodipodi:nodetypes="sccsccssccsccscccccsscsscsss" />
  <ellipse
     style="opacity:1;fill:#f22c42;fill-opacity:1;stroke-width:1.14285719"
     id="path843"
     cx="3.9834113"
     cy="10.220099"
     rx="1.3559322"
     ry="1.4334141" />
  <ellipse
     ry="1.4334141"
     rx="1.3559322"
     cy="10.220099"
     cx="12.18365"
     id="ellipse817"
     style="opacity:1;fill:#f22c42;fill-opacity:1;stroke-width:1.14285719" />
</svg>
